X:1
T:O Master, at Thy Feet
T:O Master, at Thy Feet
T:Scott Wederbaugh, 2017
T:Frances Ridley Havergal, 1866
T:© 2017 Scott Werdebaugh. Reproduce or publish freely for Christian worship or devotions. Courtesy of the Cyber Hymnal™
T:© 2017 Scott Werdebaugh. Reproduce or publish freely for Christian worship or devotions. Courtesy of the Cyber Hymnal™
C:Scott Wederbaugh, 2017
Z:© 2017 Scott Werdebaugh. Reproduce or publish freely for Christian worship or devotions.
Z:Courtesy of the Cyber Hymnal™
%%score ( 1 2 ) 3
L:1/8
Q:1/4=115
M:4/4
K:C
V:1 treble 
V:2 treble 
V:3 bass 
V:1
 [EG]2 | [DF]2 [CE]2 [B,E]2 [B,D]2 | C6 [EG]2 | [B,D]2 [CE]2 [DF]2 [DG]2 | [CE]6 [CG]2 | %5
w: 1.~O|Mast- er, at Thy|feet I|bow in rap- ture|sweet! Be-|
w: 2.~O|full of truth and|grace, Smile|of Je- ho- vah’s|face; O|
w: 3.~I|have no words to|bring Wor-|thy of Thee, my|King, And|
w: 4.~How|can the lip be|dumb, The|hand all still and|numb, When|
w: 5.~Yea,|let my whole life|be One|an- them un- to|Thee, And|
 [CA]2 [DB]2 [Ec]2 [EG]2 | [CA]2 [D^F]2 [DG]2 [DG]2 | [Ec]2 [GB]2 [DA]2 [D^F]2 | [DG]6 [FB]2 | %9
w: fore me, as in|darken- ing glass, Some|glori- ous out- lines|pass, Of|
w: tender- est heart of|love un- told! Who|may Thy praise un-|fold? Thee,|
w: yet one an- them|in Thy praise I|long, I long to|raise; The|
w: Thee the heart doth|see and own Her|Lord and God a-|lone? Tune|
w: let the praise of|lip and life Out-|ring all sin and|strife. O|
 [Ec]3 [DB] [CA]3 [EG] | [FA]3 [GB] [Ec]3 [Ec] | [DB]6 [DG]2 | [Ec]3 [DB] [Ec]3 [EG] | %13
w: love, and truth, and|ho- li- ness, and|power; I|own them Thine, O|
w: Sa- vior, Lord of|lords and King of|kings, Well|may a- dor- ing|
w: heart is full, the|eye en- tranced a-|bove, But|words all melt a-|
w: for Thy- self the|mu- sic of my|days, And|o- pen Thou my|
w: Je- sus, Mas- ter!|Be Thy name su-|preme, For|heaven and earth the|
 [CA]6 [CF]2 | [CE]2 [DF]2 [B,E]3 [B,D] | C6 |] %16
w: Christ, And|bless Thee for this|hour.|
w: ser- aphs|Hymn with veil- ing|wings.|
w: way To|si- lent awe and|love.|
w: lipst That|I may show Thy|praise.|
w: one, The|grand, e- ter- nal|theme.|
V:2
 x2 | x8 | C6 x2 | x8 | x8 | x8 | x8 | x8 | x8 | x8 | x8 | x8 | x8 | x8 | x8 | C6 |] %16
V:3
 [C,G,]2 | [B,,G,]2 [C,G,]2 [G,,G,]2 [G,,F,]2 | [C,E,]6 [C,C]2 | %3
 [G,,G,]2 [C,G,]2 [B,,G,]2 [G,B,]2 | [C,G,]6 [E,G,]2 | [F,A,]2 [G,,G,]2 [C,G,]2 [C,C]2 | %6
 [D,A,]2 [D,A,]2 [G,B,]2 [G,B,]2 | [C,G,]2 [D,G,]2 [^F,A,]2 [D,A,]2 | [G,B,]6 [D,G,]2 | %9
 [C,G,]3 [G,,G,] [F,A,]3 [C,C] | [C,F,]3 [D,G,] [C,G,]3 [C,G,] | [G,,G,]6 [B,,G,]2 | %12
 [C,G,]3 [G,,G,] [C,G,]3 [C,C] | [F,A,]6 [F,A,]2 | [C,G,]2 [B,,G,]2 [G,,G,]3 [G,,F,] | [C,E,]6 |] %16

